X:1
T:Ben Hall
M:3/4
L:1/4
K:C
 A| G2 A| D2 D| c2 B| A2 D| E2 E| D2 D| D3-| D2 D| ^F2 G| A- B c| d2 e|\
 d- c A| c2 c| d2 c| A3-| A2 D| ^F2 G| A- G A| d2 e| d- c A| c2 c|\
 d2 c| A3-| A2 F| G2 A| D2 D| c2 B| A2 D| E2 E| D2 D| D3-| D2||
